X: 38431
T: Starry Night For A Ramble
R: jig
M: 6/8
K: Dmajor
|:f2d A2F|G3 B2B|A2d c2d|e3 efg|
fed A2F|G3 BcB|A2d c2e|d3 d3:|
|:g2g gfe|f2f fed|e2e efg|a3 a2f|
gag gfe|fgf fed|efe efg|a3 a2g:|

